packages/icons/src/components/Logo/assets/dark/windows.svg

<svg width="20" height="20" viewBox="0 0 20 20" fill="none" xmlns="http://www.w3.org/2000/svg">
<path d="M0.0308228 2.83167L8.179 1.72197L8.18257 9.58155L0.0382661 9.62793L0.0308228 2.83167ZM8.17512 10.4871L8.18145 18.3536L0.0371473 17.2338L0.0366907 10.4344L8.17512 10.4871ZM9.16287 1.5768L19.9667 0V9.48159L9.16287 9.56736V1.5768ZM19.9692 10.5611L19.9667 20L9.16285 18.4752L9.14771 10.5434L19.9692 10.5611Z" fill="white"/>
</svg>

<svg xmlns="http://www.w3.org/2000/svg" width="20" height="20" fill="none" viewBox="0 0 20 20">
    <path fill="#fff" d="m.03 2.832 8.149-1.11.004 7.86-8.145.046zm8.145 7.655.006 7.867-8.144-1.12v-6.8zm.988-8.91L19.967 0v9.482l-10.804.085zm10.806 8.984L19.967 20 9.163 18.475l-.015-7.932z"/>
</svg>
